img/header/header-video.svg

<svg width="126" height="126" viewBox="0 0 126 126" fill="none" xmlns="http://www.w3.org/2000/svg">
<g filter="url(#filter0_d_1_141)">
<rect x="38.36" y="19.9399" width="48.96" height="48.96" rx="12.24" fill="#20B486"/>
<g clip-path="url(#clip0_1_141)">
<path d="M65.6998 54.35H59.3998L58.6498 52.325H47.3248V33.05C47.3248 32.15 48.0748 31.4 48.9748 31.4H77.0248C77.9248 31.4 78.6748 32.15 78.6748 33.05V52.4H67.1998L65.6998 54.35ZM60.2248 53.225H65.1748L66.6748 51.2H77.5498V33.05C77.5498 32.75 77.3248 32.525 77.0248 32.525H48.9748C48.6748 32.525 48.4498 32.75 48.4498 33.05V51.275H59.4748L60.2248 53.225Z" fill="white"/>
<path d="M75.5999 56.6H50.3999C47.6999 56.6 45.5249 54.425 45.5249 51.725V51.125H59.3999L60.1499 53.15H65.0999L66.5999 51.125H80.3999V51.725C80.4749 54.425 78.2249 56.6 75.5999 56.6ZM46.7249 52.325C47.0249 54.125 48.5249 55.475 50.3999 55.475H75.5249C77.3999 55.475 78.9749 54.125 79.1999 52.325H67.1999L65.6999 54.35H59.3999L58.6499 52.325H46.7249Z" fill="white"/>
<path d="M57.5249 35.375H51.7499V40.4H57.5249V35.375Z" fill="white"/>
<path d="M58.0499 40.925H51.1499V34.775H58.0499V40.925ZM52.2749 39.8H56.9249V35.9H52.2749V39.8Z" fill="white"/>
<path d="M57.5249 43.325H51.7499V48.3499H57.5249V43.325Z" fill="white"/>
<path d="M58.0499 48.95H51.1499V42.8H58.0499V48.95ZM52.2749 47.825H56.9249V43.925H52.2749V47.825Z" fill="white"/>
<path d="M74.5499 37.25H61.1249V38.375H74.5499V37.25Z" fill="white"/>
<path d="M74.5499 45.275H61.1249V46.4H74.5499V45.275Z" fill="white"/>
</g>
</g>
<defs>
<filter id="filter0_d_1_141" x="0.109985" y="0.049942" width="125.46" height="125.46" filterUnits="userSpaceOnUse" color-interpolation-filters="sRGB">
<feFlood flood-opacity="0" result="BackgroundImageFix"/>
<feColorMatrix in="SourceAlpha" type="matrix" values="0 0 0 0 0 0 0 0 0 0 0 0 0 0 0 0 0 0 127 0" result="hardAlpha"/>
<feOffset dy="18.36"/>
<feGaussianBlur stdDeviation="19.125"/>
<feComposite in2="hardAlpha" operator="out"/>
<feColorMatrix type="matrix" values="0 0 0 0 0.0509804 0 0 0 0 0.0470588 0 0 0 0 0.219608 0 0 0 0.15 0"/>
<feBlend mode="normal" in2="BackgroundImageFix" result="effect1_dropShadow_1_141"/>
<feBlend mode="normal" in="SourceGraphic" in2="effect1_dropShadow_1_141" result="shape"/>
</filter>
<clipPath id="clip0_1_141">
<rect width="36" height="36" fill="white" transform="translate(44.9999 26)"/>
</clipPath>
</defs>
</svg>

<svg width="126" height="126" fill="none" xmlns="http://www.w3.org/2000/svg"><g filter="url(#filter0_d_1_141)"><rect x="38.36" y="19.94" width="48.96" height="48.96" rx="12.24" fill="#20B486"/><g clip-path="url(#clip0_1_141)" fill="#fff"><path d="M65.7 54.35h-6.3l-.75-2.025H47.325V33.05c0-.9.75-1.65 1.65-1.65h28.05c.9 0 1.65.75 1.65 1.65V52.4H67.2l-1.5 1.95zm-5.475-1.125h4.95l1.5-2.025H77.55V33.05c0-.3-.225-.525-.525-.525h-28.05c-.3 0-.525.225-.525.525v18.225h11.025l.75 1.95z"/><path d="M75.6 56.6H50.4a4.865 4.865 0 01-4.875-4.875v-.6H59.4l.75 2.025h4.95l1.5-2.025h13.8v.6c.075 2.7-2.175 4.875-4.8 4.875zm-28.875-4.275c.3 1.8 1.8 3.15 3.675 3.15h25.125c1.875 0 3.45-1.35 3.675-3.15h-12l-1.5 2.025h-6.3l-.75-2.025H46.725zm10.8-16.95H51.75V40.4h5.775v-5.025z"/><path d="M58.05 40.925h-6.9v-6.15h6.9v6.15zM52.275 39.8h4.65v-3.9h-4.65v3.9zm5.25 3.525H51.75v5.025h5.775v-5.025z"/><path d="M58.05 48.95h-6.9V42.8h6.9v6.15zm-5.775-1.125h4.65v-3.9h-4.65v3.9zM74.55 37.25H61.125v1.125H74.55V37.25zm0 8.025H61.125V46.4H74.55v-1.125z"/></g></g><defs><clipPath id="clip0_1_141"><path fill="#fff" transform="translate(45 26)" d="M0 0h36v36H0z"/></clipPath><filter id="filter0_d_1_141" x=".11" y=".05" width="125.46" height="125.46" filterUnits="userSpaceOnUse" color-interpolation-filters="sRGB"><feFlood flood-opacity="0" result="BackgroundImageFix"/><feColorMatrix in="SourceAlpha" values="0 0 0 0 0 0 0 0 0 0 0 0 0 0 0 0 0 0 127 0" result="hardAlpha"/><feOffset dy="18.36"/><feGaussianBlur stdDeviation="19.125"/><feComposite in2="hardAlpha" operator="out"/><feColorMatrix values="0 0 0 0 0.0509804 0 0 0 0 0.0470588 0 0 0 0 0.219608 0 0 0 0.15 0"/><feBlend in2="BackgroundImageFix" result="effect1_dropShadow_1_141"/><feBlend in="SourceGraphic" in2="effect1_dropShadow_1_141" result="shape"/></filter></defs></svg>
